img/profile/deactivate.svg

<svg width="24" height="24" viewBox="0 0 24 24" fill="none" xmlns="http://www.w3.org/2000/svg">
<g clip-path="url(#clip0_813_3013)">
<path d="M1.3999 21.5998C1.39984 22.1521 1.84751 22.5998 2.39979 22.5999C2.95207 22.6 3.39984 22.1523 3.3999 21.6L1.3999 21.5998ZM2.40031 17.9995L3.40031 17.9996L2.40031 17.9995ZM13.1999 15.3999C13.7522 15.3999 14.1999 14.9522 14.1999 14.3999C14.1999 13.8476 13.7522 13.3999 13.1999 13.3999V15.3999ZM20.8928 18.107C21.2833 18.4975 21.9165 18.4975 22.307 18.107C22.6975 17.7165 22.6975 17.0833 22.307 16.6928L20.8928 18.107ZM18.4886 12.8744C18.0981 12.4839 17.4649 12.4839 17.0744 12.8744C16.6839 13.2649 16.6839 13.8981 17.0744 14.2886L18.4886 12.8744ZM17.0745 16.6927C16.684 17.0832 16.684 17.7164 17.0745 18.1069C17.465 18.4974 18.0982 18.4974 18.4887 18.1069L17.0745 16.6927ZM22.3071 14.2885C22.6976 13.898 22.6976 13.2648 22.3071 12.8743C21.9166 12.4838 21.2834 12.4838 20.8929 12.8743L22.3071 14.2885ZM13.3999 5.9999C13.3999 7.43584 12.2358 8.5999 10.7999 8.5999V10.5999C13.3404 10.5999 15.3999 8.54041 15.3999 5.9999H13.3999ZM10.7999 8.5999C9.36396 8.5999 8.1999 7.43584 8.1999 5.9999H6.1999C6.1999 8.54041 8.25939 10.5999 10.7999 10.5999V8.5999ZM8.1999 5.9999C8.1999 4.56396 9.36396 3.3999 10.7999 3.3999V1.3999C8.25939 1.3999 6.1999 3.45939 6.1999 5.9999H8.1999ZM10.7999 3.3999C12.2358 3.3999 13.3999 4.56396 13.3999 5.9999H15.3999C15.3999 3.45939 13.3404 1.3999 10.7999 1.3999V3.3999ZM3.3999 21.6L3.40031 17.9996L1.40031 17.9994L1.3999 21.5998L3.3999 21.6ZM6.00031 13.3999C3.46 13.3999 1.40059 15.4591 1.40031 17.9994L3.40031 17.9996C3.40047 16.5638 4.56448 15.3999 6.00031 15.3999V13.3999ZM6.00031 15.3999H13.1999V13.3999H6.00031V15.3999ZM22.307 16.6928L20.3978 14.7836L18.9836 16.1978L20.8928 18.107L22.307 16.6928ZM20.3978 14.7836L18.4886 12.8744L17.0744 14.2886L18.9836 16.1978L20.3978 14.7836ZM18.4887 18.1069L20.3978 16.1978L18.9836 14.7836L17.0745 16.6927L18.4887 18.1069ZM20.3978 16.1978L22.3071 14.2885L20.8929 12.8743L18.9836 14.7836L20.3978 16.1978Z" fill="#F2F4F6"/>
</g>
<defs>
<clipPath id="clip0_813_3013">
<rect width="24" height="24" fill="white"/>
</clipPath>
</defs>
</svg>

<svg width="24" height="24" viewBox="0 0 24 24" fill="none" xmlns="http://www.w3.org/2000/svg"><g clip-path="url(#clip0_813_3013)"><path d="M1.4 21.6a1 1 0 002 0h-2zm1-3.6h1-1zm10.8-2.6a1 1 0 100-2v2zm7.693 2.707a1 1 0 001.414-1.414l-1.414 1.414zm-2.404-5.233a1 1 0 00-1.415 1.415l1.415-1.415zm-1.415 3.819a1 1 0 001.415 1.414l-1.415-1.414zm5.233-2.405a1 1 0 00-1.414-1.414l1.414 1.415zM13.4 6a2.6 2.6 0 01-2.6 2.6v2A4.6 4.6 0 0015.4 6h-2zm-2.6 2.6A2.6 2.6 0 018.2 6h-2a4.6 4.6 0 004.6 4.6v-2zM8.2 6a2.6 2.6 0 012.6-2.6v-2A4.6 4.6 0 006.2 6h2zm2.6-2.6A2.6 2.6 0 0113.4 6h2a4.6 4.6 0 00-4.6-4.6v2zM3.4 21.6V18h-2v3.6h2zM6 13.4A4.6 4.6 0 001.4 18h2A2.6 2.6 0 016 15.4v-2zm0 2h7.2v-2H6v2zm16.307 1.293l-1.91-1.91-1.413 1.415 1.909 1.909 1.414-1.414zm-1.91-1.91l-1.908-1.909-1.415 1.415 1.91 1.909 1.414-1.414zm-1.908 3.324l1.909-1.91-1.414-1.413-1.91 1.909 1.415 1.414zm1.909-1.91l1.91-1.908-1.415-1.415-1.91 1.91 1.415 1.414z" fill="#F2F4F6"/></g><defs><clipPath id="clip0_813_3013"><path fill="#fff" d="M0 0h24v24H0z"/></clipPath></defs></svg>
